X: 7
T: Genevieve's
C: Manus McGuire
Z: DonaldK
S: https://thesession.org/tunes/135#setting47843
R: waltz
M: 3/4
L: 1/8
K: Amaj
|:E2|c3dc2|B2A2G2|A3Bc2|E4E2|F2A2d2|c2E2c2|c3BA2|B4[E2e2]|
c3dc2|B2A2G2|A3Bc2|E4E2|F2A2d2|c2E2c2|B3AG2|A4:|
A2|f3ff2|f2g2a2|e4d2|c3BA2|d3ed2|c2B2A2|F2G2A2|B4A2|
f3ff2|f2g2a2|e4d2|c3BA2|d3ed2|c2B2A2|F2A2G2|A4A2|
f3ff2|f2g2a2|e4d2|c3BA2|d3e (3fga|e2c2A2|F2G2A2|B4E2|
c3dc2|B2A2G2|A3Bc2|E4E2|F2A2d2|c2E2c2|B3AG2|A4||

